src/icons/blockchains/dark/neon.svg

<svg width="24" height="24" viewBox="0 0 24 24" fill="none" xmlns="http://www.w3.org/2000/svg">
  <rect width="24" height="24" rx="12" fill="#080530" />
  <mask
    id="mask0_1376_21355"
    style="mask-type: alpha"
    maskUnits="userSpaceOnUse"
    x="4"
    y="4"
    width="16"
    height="16"
  >
    <rect x="4" y="4" width="16" height="16" fill="#D9D9D9" />
  </mask>
  <g mask="url(#mask0_1376_21355)"></g>
  <g clip-path="url(#clip0_1376_21355)">
    <path
      fill-rule="evenodd"
      clip-rule="evenodd"
      d="M19 12C19 15.866 15.866 19 12 19C8.13401 19 5 15.866 5 12C5 8.13401 8.13401 5 12 5C15.866 5 19 8.13401 19 12ZM9.29261 9.02624L11.9114 11.6451V9.1574C11.9114 9.13273 11.9163 9.1083 11.9258 9.08553C11.9352 9.06275 11.9492 9.04208 11.9667 9.0247C11.9841 9.00733 12.005 8.99359 12.0278 8.98427C12.0507 8.97496 12.0751 8.97025 12.0998 8.97044H15.0443C15.047 8.97035 15.0497 8.9703 15.0524 8.97031L15.0564 8.97038L15.0591 8.9704C15.0827 8.97075 15.1061 8.97557 15.1279 8.98461C15.1507 8.994 15.1712 9.00778 15.1886 9.02514C15.2059 9.0425 15.2197 9.06311 15.2291 9.08579C15.2386 9.10847 15.2434 9.13278 15.2434 9.15733V12.0826C15.2442 12.0896 15.2446 12.0968 15.2446 12.104V15.0506C15.2448 15.0753 15.2401 15.0997 15.2308 15.1226C15.2214 15.1454 15.2077 15.1662 15.1903 15.1838C15.1729 15.2013 15.1523 15.2151 15.1295 15.2246C15.1067 15.2341 15.0823 15.239 15.0576 15.239C15.0317 15.2394 15.006 15.2345 14.982 15.2247C14.958 15.2149 14.9363 15.2002 14.9181 15.1818H14.9167L12.2977 12.5628V15.0507C12.2979 15.0753 12.2933 15.0998 12.2839 15.1227C12.2746 15.1455 12.2609 15.1663 12.2435 15.1838C12.2261 15.2013 12.2055 15.2152 12.1827 15.2247C12.1599 15.2341 12.1355 15.239 12.1108 15.239H9.15972L9.1532 15.239C9.12841 15.2392 9.10384 15.2345 9.0809 15.225C9.05797 15.2156 9.03713 15.2018 9.0196 15.1842C9.00207 15.1667 8.9882 15.1459 8.97881 15.1229C8.96941 15.1 8.96466 15.0754 8.96485 15.0506V12.104C8.96485 12.0888 8.96669 12.0738 8.97032 12.0591V9.15739C8.97057 9.12016 8.98185 9.08383 9.00274 9.05301C9.02363 9.02218 9.05318 8.99824 9.08767 8.98421C9.12216 8.97017 9.16004 8.96667 9.19652 8.97415C9.233 8.98163 9.26643 8.99976 9.29261 9.02624Z"
      fill="white"
    />
  </g>
  <defs>
    <clipPath id="clip0_1376_21355">
      <rect width="14" height="14" fill="white" transform="translate(5 5)" />
    </clipPath>
  </defs>
</svg>

<svg
  xmlns="http://www.w3.org/2000/svg"
  width="24"
  height="24"
  fill="none"
  xmlns:v="https://vecta.io/nano"
>
  <rect width="24" height="24" rx="12" fill="#080530" />
  <g clip-path="url(#A)">
    <path
      fill-rule="evenodd"
      d="M19 12a7 7 0 1 1-14 0 7 7 0 1 1 14 0zM9.293 9.026l2.619 2.619V9.157c0-.025.005-.049.014-.072s.023-.043.041-.061.038-.031.061-.04.047-.014.072-.014h2.944.012.003c.024 0 .047.005.069.014s.043.023.061.041.031.038.041.061.014.047.014.072v2.925a.19.19 0 0 1 .001.021v2.947c0 .025-.005.049-.014.072a.19.19 0 0 1-.04.061c-.017.018-.038.031-.061.041s-.047.014-.072.014-.052-.005-.076-.014-.046-.024-.064-.043h-.001l-2.619-2.619v2.488c0 .025-.004.049-.014.072s-.023.044-.04.061-.038.031-.061.041-.047.014-.072.014H9.16h-.007c-.025 0-.049-.005-.072-.014s-.044-.023-.061-.041-.031-.038-.041-.061-.014-.047-.014-.072v-2.947c0-.015.002-.03.005-.045V9.157c0-.037.012-.074.032-.104s.05-.055.085-.069.072-.018.109-.01.07.026.096.052z"
      fill="#fff"
    />
  </g>
  <defs>
    <clipPath id="A"><path fill="#fff" transform="translate(5 5)" d="M0 0h14v14H0z" /></clipPath>
  </defs>
</svg>
